!!!COM: Bach, Johann Sebastian
!!!CDT: 1685/3//-1750/7/28/
!!!OTL@@DE: Wer nur den lieben Gott laesst walten
!!!AGN: 4-Part Chorale
!!!SCT: BH 146
!!!SCT: BWV 434
**harm	**root	**kern	**kern	**kern	**kern
!	!	!bass	!tenor	!alto	!soprno
*	*Iorgan	*Iorgan	*Iorgan	*Iorgan	*Iorgan
*	*	*clefF2	*clefF2	*clefG2	*clefG2
*k[f#c#g#d#a#]	*k[f#c#g#d#a#]	*k[f#c#g#d#a#]	*k[f#c#g#d#a#]	*k[f#c#g#d#a#]	*k[f#c#g#d#a#]
*g#:	*g#:	*g#:	*g#:	*g#:	*g#:
*M4/4	*M4/4	*M4/4	*M4/4	*M4/4	*M4/4
*met(c)	*met(c)	*met(c)	*met(c)	*met(c)	*met(c)
*MM60	*MM60	*MM60	*MM60	*MM60	*MM60
*>[A,A,B]	*>[A,A,B]	*>[A,A,B]	*>[A,A,B]	*>[A,A,B]	*>[A,A,B]
*>A	*>A	*>A	*>A	*>A	*>A
i	4AA	4G#	8G#	8B	4d#
.	.	.	8A#	8c#	.
=1	=1	=1	=1	=1	=1
ib	4AA	4BB	8B	4d#	4g#
.	.	.	8A#	.	.
V	4EE	4D#	8G#	4d#	4a#
.	.	.	8F##	.	.
i	4AA	4GG#	4G#	8d#	4b
.	.	.	.	8e#	.
viiob	4GG#	4AA#	4C#	4f##	4a#
=2	=2	=2	=2	=2	=2
ib	4AA	4BB	8D#	8g#	4g#
.	.	.	8d#	8f#	.
iiob	4BB	4C#	8c#	4e	4a#
.	.	.	8B	.	.
V	2EE	2D#	4.A#	2d#	4.f##
.	.	.	8G#	.	8e#
=3	=3	=3	=3	=3	=3
V;	4EE;	4D#;	4F##;	4A#;	4d#;
v	4EE	4D#	4A#	4d#	4f#
i7	4AA	4G#	4B	4d#	4f#
iio	4BB	8A#	8c#	4c#	4e
.	.	8G#	8B	.	.
=4	=4	=4	=4	=4	=4
V7b	8EE	8F##	8A#	8c#	4d#
V7c/IV	8AA	8F#	8G#	8B#	.
IVb	8DD	8E#	8G#	8c#	4g#
Fr	8DD#	8E	8A#	8c##	.
ic	8AA	8D#	8B	8d#	8g#
Vb/V	8BB	8C##	[8A#	8e#	8a#
V7	4EE	4D#	8A#]	4d#	4f##
.	.	.	16B	.	.
.	.	.	16c#	.	.
!!linebreak: 2
=5	=5	=5	=5	=5	=5
i;	2.AA;	2.GG#;	2.B;	2.d#;	2.g#;
=:|!	=:|!	=:|!	=:|!	=:|!	=:|!
*>B	*>B	*>B	*>B	*>B	*>B
V	4EE	4D#	4d#	4f##	4a#
=6	=6	=6	=6	=6	=6
i	4AA	4G#	4d#	4g#	4b
-VII	4GG	4A#	4c#	4f#	4cc#
III	4CC	8B	4B	4f#	4dd#
.	.	8A#	.	.	.
i	4AA	8G#	4B	4g#	4dd#
.	.	8F#	.	.	.
=7	=7	=7	=7	=7	=7
iv7	4DD	8E	4B	4g#	8cc#
.	.	8C#	.	.	16dd#
.	.	.	.	.	16ee
V7/III	4GG	4F#	4A#	8f#	4cc#
.	.	.	.	8e	.
III;	4CC;	4BB;	4F#;	4d#;	4b;
I	4AA	4BB#	4G#	4d#	4dd#
=8	=8	=8	=8	=8	=8
IV	8DD	8C#	8G#	8e#	4cc#
V7	8EE	8D#	8d#	8f##	.
vi7	8FF	8E	8d#	4g#	4b
viio/-VII	8FF#	8E#	8d	.	.
-VII	8GG	8F#	4c#	8f#	4a#
viio7	8GG#	8F##	.	8e	.
i	4AA	4G#	8B	4d#	8g#
.	.	.	8A#	.	8a#
=9	=9	=9	=9	=9	=9
viio7/V	4DD#	4C##	4G#	4e#	8b
.	.	.	.	.	8a#
V7	4EE	4D#	4F##	8d#	4a#
.	.	.	.	8c#	.
I;	4AA;	4GG#;	4D#;	4B#;	4g#;
==	==	==	==	==	==
*-	*-	*-	*-	*-	*-
!!chor2scor: -l 2 -s 0.6 -o %b.pmx
!!!YEC: Copyright 2003 by Craig Stuart Sapp
!!!license: GNU General Public License (http://www.gnu.org/copyleft/gpl.html)
!!!SMA: 371 Bach Chorales, edited by Ludwig Erk, C.F. Peters
!!!PDT: 1850, 1865
!!!ONB: Harmony and Root analysis done manually by Craig Sapp
